view/frontend/web/svg/flags/bb.svg

<svg width="24" height="24" viewbox="0 0 20 15" viewBox="0 0 20 15" fill="none" xmlns="http://www.w3.org/2000/svg">
<g clip-path="url(#clip0_270_60964)">
<rect width="20" height="15" fill="white"/>
<path fill-rule="evenodd" clip-rule="evenodd" d="M14 0H20V15H14V0Z" fill="#2E42A5"/>
<path fill-rule="evenodd" clip-rule="evenodd" d="M6 0H14V15H6V0Z" fill="#FECA00"/>
<path fill-rule="evenodd" clip-rule="evenodd" d="M0 0H6V15H0V0Z" fill="#2E42A5"/>
<path fill-rule="evenodd" clip-rule="evenodd" d="M11.5214 9.54567C11.9169 8.72753 12.3731 7.2346 12.3731 7.2346L12.7193 6.20672L11.3474 6.70352L11.672 6.89208C11.672 6.89208 11.1062 8.0232 10.8212 8.57576C10.5362 9.12832 10.508 8.76326 10.508 8.76326L10.5567 4.90782L10.8716 4.82245L10.0869 3.315L9.08567 4.84334L9.52683 4.85524C9.52683 4.85524 9.49016 8.92312 9.42884 8.76326C9.39462 8.67246 9.30356 8.95309 9.25919 8.8444C8.98106 8.16301 8.60065 6.84243 8.60065 6.84243L8.82324 6.63419L7.33057 6.32709L7.7762 7.24476C7.7762 7.24476 8.16918 8.88 8.60065 9.67862C8.69781 9.93129 9.16728 10.0391 9.16728 10.0391C9.16728 10.0391 9.3965 9.8064 9.45329 10.0391C9.51007 10.2717 9.45329 11.2109 9.45329 11.2109H10.508C10.508 11.2109 10.4337 10.3249 10.508 10.0391C10.5822 9.75322 10.8124 10.0391 10.8124 10.0391C10.8124 10.0391 11.4244 9.79834 11.5214 9.54567Z" fill="black"/>
</g>
<defs>
<clipPath id="clip0_270_60964">
<rect width="20" height="15" fill="white"/>
</clipPath>
</defs>
</svg>

<svg width="24" height="24" viewbox="0 0 20 15" fill="none" xmlns="http://www.w3.org/2000/svg">
  <mask id="a" maskUnits="userSpaceOnUse" x="0" y="0" width="20" height="15">
    <path fill="#fff" d="M0 0h20v15H0z"/>
  </mask>
  <g mask="url(#a)" fill-rule="evenodd" clip-rule="evenodd">
    <path d="M14 0h6v15h-6V0z" fill="#2E42A5"/>
    <path d="M6 0h8v15H6V0z" fill="#FECA00"/>
    <path d="M0 0h6v15H0V0z" fill="#2E42A5"/>
    <path d="M11.521 9.546c.396-.818.852-2.311.852-2.311l.346-1.028-1.372.497.325.188s-.566 1.131-.85 1.684c-.286.552-.314.187-.314.187l.049-3.855.315-.086-.785-1.507-1.001 1.528.44.012S9.49 8.923 9.43 8.763c-.034-.09-.125.19-.17.081-.278-.681-.658-2.002-.658-2.002l.222-.208-1.492-.307.445.918s.393 1.635.825 2.434c.097.252.566.36.566.36s.23-.233.286 0c.057.233 0 1.172 0 1.172h1.055s-.074-.886 0-1.172c.074-.286.304 0 .304 0s.612-.24.71-.493z" fill="#000"/>
  </g>
</svg>
